X: 26213
T: Mean Fouyir
R: reel
M: 4/4
K: Ddorian
|:AG EF D2 DE|F2 FE FG A/B/c|GE DE C2 CD|ED E/F/G G/F/G cG|
AG EF D2 DE|F2 FE FG A/B/c|Af f/f/f fe dB|B/c/A GE ED DD:|
f3f fe dB|cG EG cd ec|Af f/f/f fe dB|B/c/A GE ED DD|
Af ff fe dB|cd ef g2 fg|af ge fe dB|B/c/A GE ED DD|
Af ff fe dB|cG EG cd ec|Af f/f/f fe dB|B/c/A GE ED DD|
DE FG AG Ac|Gc c/c/c cd ec|Af ff fe dB|B/c/A GE ED E/F/G|

